svg/u1f44c_1f3ff.svg

<svg viewBox="0 0 128 128" xmlns="http://www.w3.org/2000/svg">
  <defs>
    <linearGradient id="e" gradientUnits="userSpaceOnUse" x1="42.41" x2="83.27" y1="39.536" y2="39.536">
      <stop offset="0" stop-color="#70534A"/>
      <stop offset=".4473" stop-color="#65483F"/>
      <stop offset=".9991" stop-color="#5C4037"/>
    </linearGradient>
    <linearGradient id="d" gradientUnits="userSpaceOnUse" x1="45.612" x2="104.92" y1="47.458" y2="47.458">
      <stop offset="0" stop-color="#70534A"/>
      <stop offset=".4661" stop-color="#6D5047"/>
      <stop offset=".8408" stop-color="#63463D"/>
      <stop offset=".9991" stop-color="#5C4037"/>
    </linearGradient>
    <linearGradient id="a" gradientUnits="userSpaceOnUse" x1="36.044" x2="88.678" y1="59.183" y2="111.82">
      <stop offset="0" stop-color="#70534A"/>
      <stop offset=".4661" stop-color="#6D5047"/>
      <stop offset=".8408" stop-color="#63463D"/>
      <stop offset=".9991" stop-color="#5C4037"/>
    </linearGradient>
  </defs>
  <path d="M77.93,56.51 C68.42,56.51 48.77,40.61 47.58,39.64 C45.28,37.33 40.4,31.35 43.3,24.72 C43.92,23.29 45.27,22.57 47.29,22.57 C49.74,22.57 52.91,23.68 55.76,25.54 L81.25,45.23 C84.49,47.68 83.39,52.22 80.99,55.42 C80.33,56.15 79.33,56.51 77.93,56.51 Z" fill="url(#e)"/>
  <path d="M47.29,24.06 C49.45,24.06 52.29,25.06 54.89,26.75 L80.35,46.43 C83.1,48.51 81.25,52.53 79.83,54.46 C79.65,54.65 79.18,55.02 77.92,55.02 C70.32,55.02 54.29,43.21 48.59,38.54 C46.49,36.41 42.16,31.07 44.67,25.33 C44.84,24.94 45.23,24.06 47.29,24.06 M47.29,21.06 C44.86,21.06 42.87,21.97 41.93,24.11 C39.22,30.3 42.32,36.49 46.57,40.75 C46.57,40.75 67.51,58.01 77.92,58.01 C79.68,58.01 81.14,57.52 82.15,56.36 C85.13,52.42 86.1,47.02 82.16,44.04 L56.63,24.31 C53.6,22.32 50.15,21.06 47.29,21.06 Z" fill="#4A2F27"/>
  <path d="M96.48,89.21 C87.18,89.11 84.18,68.94 83.81,61.16 C83.79,60.71 83.57,60.3 83.21,60.03 C78.92,56.8 74.12,45.84 71.06,36.65 C70.97,36.39 70.91,36.26 70.9,36.25 C70.71,35.91 70.4,35.65 70.02,35.53 C63.15,33.42 52.67,24.88 48.48,19.94 C46.17,17.22 44.69,11.45 46.24,8.11 C46.99,6.49 48.33,5.71 50.34,5.71 C52.88,5.71 56.38,7.01 60.47,9.48 C61.61,10.31 81.15,24.57 86.27,30.24 C91.48,36.01 97.91,48.87 97.97,49 C106.22,66.42 105.01,82.11 104.6,85.67 C101.18,87.31 97.33,89.03 96.48,89.21 Z" fill="url(#d)"/>
  <path d="M50.35,7.21 C51.92,7.21 54.81,7.82 59.65,10.73 C61.22,11.87 80.21,25.75 85.17,31.24 C90.14,36.74 96.32,49.02 96.63,49.64 C104.17,65.59 103.63,80.09 103.21,84.67 C100.35,86.03 97.32,87.38 96.31,87.69 C88.97,87.29 85.74,69.66 85.32,61.08 C85.28,60.19 84.84,59.36 84.13,58.82 C81.62,56.93 77.06,49.86 72.5,36.17 C72.42,35.93 72.36,35.76 72.23,35.52 C71.86,34.83 71.23,34.32 70.48,34.09 C67.47,33.16 63.38,30.8 58.95,27.43 C55.3,24.65 51.64,21.32 49.64,18.96 C47.43,16.36 46.43,11.29 47.61,8.73 C47.96,7.98 48.56,7.21 50.35,7.21 M50.35,4.21 C41.9,4.21 43.22,16.05 47.35,20.91 C51.33,25.6 62.05,34.64 69.6,36.97 C69.64,37.04 75.79,56.31 82.32,61.23 C82.32,61.23 83.72,90.71 96.56,90.71 C97.68,90.71 106,86.67 106,86.67 C106,86.67 109,68.75 99.33,48.34 C99.33,48.34 92.82,35.24 87.4,29.24 C81.98,23.24 61.31,8.24 61.31,8.24 C56.56,5.36 52.98,4.21 50.35,4.21 Z" fill="#4A2F27"/>
  <path d="M51.27,122.3 C49.02,122.28 43.29,119.05 42.5,118.35 C42.46,118.31 42.38,118.25 42.34,118.22 C42.25,118.16 33.29,111.75 28.77,105.45 C24.33,99.27 22.9,87.16 22.89,87.04 C22.33,83.08 22.75,78.06 27.96,76.33 C28.79,76.05 29.63,75.91 30.47,75.91 C34.39,75.91 37.47,78.9 39.07,81.73 C39.67,83.24 45.84,97.96 57.59,97.96 C59.57,97.96 61.61,97.53 63.65,96.67 C70.84,93.66 73.64,88.31 74.72,84.35 C76.51,77.8 74.8,70.68 72.28,67.31 C69.62,63.74 65,61.61 59.94,61.61 C57.99,61.61 56.11,61.93 54.52,62.55 C52.09,63.49 49.9,65.18 47.78,66.81 C45.7,68.41 43.55,70.07 41.14,71.07 C39.24,71.86 37.44,72.24 35.63,72.24 C32.69,72.24 29.79,71.21 26.76,69.1 C25.42,68.17 24.76,66.98 24.8,65.57 C24.85,63.63 26.24,61.52 28.35,60.19 C35.27,55.36 45.72,48.1 46.71,47.49 C50.03,45.94 55.27,44.67 58.42,44.67 C59.39,44.67 59.95,44.79 60.24,44.88 L81.78,51.89 C85.238,53.045 89.995,59.381 93.539,64.616 C94.826,67.411 96.066,70.163 97.28,72.45 C101.43,80.28 102.74,84.51 102.74,84.51 C102.74,84.51 103.672,84.435 104.513,84.699 C104.499,85.287 104.431,85.872 104.3,86.45 C103.6,89.53 100.87,96.4 96.41,106.33 C92.07,115.99 82.04,122.24 70.87,122.26 Z" fill="url(#a)"/>
  <path d="M58.41,46.19 C55.53,46.19 50.54,47.39 47.42,48.81 C46.06,49.68 35.66,56.91 29.26,61.38 C29.22,61.41 29.18,61.43 29.14,61.46 C27.47,62.51 26.32,64.18 26.29,65.61 C26.26,66.5 26.7,67.24 27.61,67.88 C30.38,69.81 33,70.75 35.62,70.75 C37.22,70.75 38.84,70.4 40.55,69.69 C42.78,68.76 44.76,67.24 46.85,65.62 C49.06,63.92 51.33,62.17 53.97,61.15 C55.73,60.47 57.79,60.11 59.92,60.11 C65.45,60.11 70.52,62.47 73.46,66.41 C76.25,70.15 78.07,77.65 76.14,84.74 C74.97,89.02 71.96,94.81 64.21,98.05 C61.99,98.98 59.75,99.45 57.57,99.45 C45.07,99.45 38.54,84.47 37.69,82.38 C36.3,79.94 33.69,77.4 30.45,77.4 C29.78,77.4 29.1,77.51 28.42,77.74 C25.03,78.86 23.66,81.9 24.36,86.77 C24.36,86.8 24.37,86.83 24.37,86.86 C24.39,86.98 25.78,98.71 29.98,104.57 C34.36,110.67 43.11,116.93 43.2,116.99 C43.3,117.05 43.39,117.13 43.48,117.21 C44.61,118.1 49.71,120.78 51.28,120.79 L70.86,120.76 C81.45,120.74 90.94,114.84 95.04,105.72 C100.63,93.29 102.37,88.2 102.84,86.12 C102.959,85.593 103.014,85.051 103.014,84.5 C103.806,84.494 106.027,84.642 105.822,86.499 C105.803,86.596 105.782,86.693 105.76,86.79 C104.88,90.63 101.3,99.1 97.77,106.96 C93.19,117.14 82.59,123.75 70.86,123.77 L51.25,123.8 C48.45,123.78 42.22,120.17 41.46,119.44 C41.46,119.44 36.413,115.857 31.877,111.326 C30.293,109.742 28.771,108.043 27.55,106.34 C22.83,99.76 21.58,86.87 21.58,86.87 C21.538,82.7 21.732,79.451 23.696,77.24 C24.335,76.563 25.111,75.977 26.039,75.506 C26.479,75.29 26.961,75.095 27.49,74.92 C31.153,73.708 34.557,74.865 37.153,77.078 C38.471,78.204 39.581,79.603 40.41,81.1 C40.41,81.1 43.236,88.438 48.691,92.973 C52.33,96.004 57.14,97.789 63.06,95.31 C77.01,89.47 74.97,73.46 71.07,68.23 C70.024,66.827 68.712,65.746 67.265,64.947 C64.983,63.686 62.365,63.13 59.92,63.13 C58.14,63.13 56.45,63.43 55.05,63.97 C50.54,65.71 46.84,70.35 41.71,72.48 C39.69,73.31 37.67,73.76 35.63,73.76 C34.364,73.76 33.091,73.59 31.802,73.235 C29.879,72.701 27.921,71.755 25.91,70.35 C21.41,67.21 23.24,61.65 27.55,58.94 C27.55,58.94 45.68,46.29 46.03,46.17 C46.222,46.079 46.423,45.987 46.632,45.894 C49.959,44.454 55.016,43.19 58.41,43.19 C59.32,43.19 60.11,43.28 60.71,43.48 L82.24,50.48 C84.553,51.25 87.202,53.817 89.754,56.932 C92.457,61.797 94.92,68.003 97.28,72.45 C97.36,72.601 97.439,72.75 97.517,72.899 C97.16,72.486 96.835,72.136 96.56,71.86 C96.41,71.71 96.28,71.55 96.17,71.38 C95.89,70.95 95.59,70.48 95.26,69.97 C92.3,65.4 85.38,54.68 81.29,53.32 L59.78,46.33 C59.66,46.3 59.28,46.19 58.41,46.19 Z" fill="#4A2F27"/>
</svg>

<svg viewBox="0 0 128 128" xmlns="http://www.w3.org/2000/svg" xmlns:xlink="http://www.w3.org/1999/xlink">
  <linearGradient id="e" gradientUnits="userSpaceOnUse" x1="42.41" x2="83.27" y1="39.536" y2="39.536">
    <stop offset="0" stop-color="#70534A"/>
    <stop offset=".4473" stop-color="#65483F"/>
    <stop offset=".9991" stop-color="#5C4037"/>
  </linearGradient>
  <path d="m77.93 56.51c-9.51 0-29.16-15.9-30.35-16.87-2.3-2.31-7.18-8.29-4.28-14.92 0.62-1.43 1.97-2.15 3.99-2.15 2.45 0 5.62 1.11 8.47 2.97l25.49 19.69c3.24 2.45 2.14 6.99-0.26 10.19-0.66 0.73-1.66 1.09-3.06 1.09z" fill="url(#e)"/>
  <path d="m47.29 24.06c2.16 0 5 1 7.6 2.69l25.46 19.68c2.75 2.08 0.9 6.1-0.52 8.03-0.18 0.19-0.65 0.56-1.91 0.56-7.6 0-23.63-11.81-29.33-16.48-2.1-2.13-6.43-7.47-3.92-13.21 0.17-0.39 0.56-1.27 2.62-1.27m0-3c-2.43 0-4.42 0.91-5.36 3.05-2.71 6.19 0.39 12.38 4.64 16.64 0 0 20.94 17.26 31.35 17.26 1.76 0 3.22-0.49 4.23-1.65 2.98-3.94 3.95-9.34 0.01-12.32l-25.53-19.73c-3.03-1.99-6.48-3.25-9.34-3.25z" fill="#4A2F27"/>
  <linearGradient id="d" gradientUnits="userSpaceOnUse" x1="45.612" x2="104.92" y1="47.458" y2="47.458">
    <stop offset="0" stop-color="#70534A"/>
    <stop offset=".4661" stop-color="#6D5047"/>
    <stop offset=".8408" stop-color="#63463D"/>
    <stop offset=".9991" stop-color="#5C4037"/>
  </linearGradient>
  <path d="m96.48 89.21c-9.3-0.1-12.3-20.27-12.67-28.05-0.02-0.45-0.24-0.86-0.6-1.13-4.29-3.23-9.09-14.19-12.15-23.38-0.09-0.26-0.15-0.39-0.16-0.4-0.19-0.34-0.5-0.6-0.88-0.72-6.87-2.11-17.35-10.65-21.54-15.59-2.31-2.72-3.79-8.49-2.24-11.83 0.75-1.62 2.09-2.4 4.1-2.4 2.54 0 6.04 1.3 10.13 3.77 1.14 0.83 20.68 15.09 25.8 20.76 5.21 5.77 11.64 18.63 11.7 18.76 8.25 17.42 7.04 33.11 6.63 36.67-3.42 1.64-7.27 3.36-8.12 3.54z" fill="url(#d)"/>
  <path d="m50.35 7.21c1.57 0 4.46 0.61 9.3 3.52 1.57 1.14 20.56 15.02 25.52 20.51 4.97 5.5 11.15 17.78 11.46 18.4 7.54 15.95 7 30.45 6.58 35.03-2.86 1.36-5.89 2.71-6.9 3.02-7.34-0.4-10.57-18.03-10.99-26.61-0.04-0.89-0.48-1.72-1.19-2.26-2.51-1.89-7.07-8.96-11.63-22.65-0.08-0.24-0.14-0.41-0.27-0.65-0.37-0.69-1-1.2-1.75-1.43-3.01-0.93-7.1-3.29-11.53-6.66-3.65-2.78-7.31-6.11-9.31-8.47-2.21-2.6-3.21-7.67-2.03-10.23 0.35-0.75 0.95-1.52 2.74-1.52m0-3c-8.45 0-7.13 11.84-3 16.7 3.98 4.69 14.7 13.73 22.25 16.06 0.04 0.07 6.19 19.34 12.72 24.26 0 0 1.4 29.48 14.24 29.48 1.12 0 9.44-4.04 9.44-4.04s3-17.92-6.67-38.33c0 0-6.51-13.1-11.93-19.1s-26.09-21-26.09-21c-4.75-2.88-8.33-4.03-10.96-4.03z" fill="#4A2F27"/>
  <defs>
    <path id="c" d="m97.28 72.45c-4.15-7.82-8.62-21.08-14.15-22.92l-21.91-6.88c-3.01-1-11.08 1.58-15.19 3.52-0.35 0.12-18.48 12.77-18.48 12.77-4.31 2.71-6.14 8.27-1.64 11.41 5.54 3.87 10.67 4.26 15.81 2.13s8.83-6.77 13.34-8.51 12.11-0.97 16.01 4.26 5.94 21.24-8.01 27.08c-14.78 6.19-22.64-14.2-22.64-14.2-2.46-4.45-7.4-8.02-12.93-6.19-5.54 1.83-5.97 5.93-5.91 11.95 0 0 1.25 12.89 5.97 19.47s13.92 13.11 13.92 13.11c0.76 0.73 6.99 4.34 9.79 4.36l19.61-0.03c11.73-0.02 22.33-6.63 26.91-16.81 3.53-7.86 7.11-16.33 7.99-20.17 0.59-2.58-3.03-2.29-3.03-2.29s-1.31-4.23-5.46-12.06z"/>
  </defs>
  <clipPath id="b">
    <use xlink:href="#c"/>
  </clipPath>
  <g clip-path="url(#b)">
    <linearGradient id="a" gradientUnits="userSpaceOnUse" x1="36.044" x2="88.678" y1="59.183" y2="111.82">
      <stop offset="0" stop-color="#70534A"/>
      <stop offset=".4661" stop-color="#6D5047"/>
      <stop offset=".8408" stop-color="#63463D"/>
      <stop offset=".9991" stop-color="#5C4037"/>
    </linearGradient>
    <path d="m51.27 122.3c-2.25-0.02-7.98-3.25-8.77-3.95-0.04-0.04-0.12-0.1-0.16-0.13-0.09-0.06-9.05-6.47-13.57-12.77-4.44-6.18-5.87-18.29-5.88-18.41-0.56-3.96-0.14-8.98 5.07-10.71 0.83-0.28 1.67-0.42 2.51-0.42 3.92 0 7 2.99 8.6 5.82 0.6 1.51 6.77 16.23 18.52 16.23 1.98 0 4.02-0.43 6.06-1.29 7.19-3.01 9.99-8.36 11.07-12.32 1.79-6.55 0.08-13.67-2.44-17.04-2.66-3.57-7.28-5.7-12.34-5.7-1.95 0-3.83 0.32-5.42 0.94-2.43 0.94-4.62 2.63-6.74 4.26-2.08 1.6-4.23 3.26-6.64 4.26-1.9 0.79-3.7 1.17-5.51 1.17-2.94 0-5.84-1.03-8.87-3.14-1.34-0.93-2-2.12-1.96-3.53 0.05-1.94 1.44-4.05 3.55-5.38 6.92-4.83 17.37-12.09 18.36-12.7 3.32-1.55 8.56-2.82 11.71-2.82 0.97 0 1.53 0.12 1.82 0.21l21.54 7.01c4.58 1.53 11.44 12.15 14.74 17.26l0.91 1.4c0.06 0.09 0.12 0.17 0.19 0.24 0.08 0.08 8.32 8.44 6.68 15.66-0.7 3.08-3.43 9.95-7.89 19.88-4.34 9.66-14.37 15.91-25.54 15.93l-19.6 0.04z" fill="url(#a)"/>
    <path d="m58.41 46.19c0.87 0 1.25 0.11 1.37 0.14l21.51 6.99c4.09 1.36 11.01 12.08 13.97 16.65 0.33 0.51 0.63 0.98 0.91 1.41 0.11 0.17 0.24 0.33 0.39 0.48 2.16 2.17 7.48 8.96 6.28 14.26-0.47 2.08-2.21 7.17-7.8 19.6-4.1 9.12-13.59 15.02-24.18 15.04l-19.58 0.03c-1.57-0.01-6.67-2.69-7.8-3.58-0.09-0.08-0.18-0.16-0.28-0.22-0.09-0.06-8.84-6.32-13.22-12.42-4.2-5.86-5.59-17.59-5.61-17.71 0-0.03-0.01-0.06-0.01-0.09-0.7-4.87 0.67-7.91 4.06-9.03 0.68-0.23 1.36-0.34 2.03-0.34 3.24 0 5.85 2.54 7.24 4.98 0.85 2.09 7.38 17.07 19.88 17.07 2.18 0 4.42-0.47 6.64-1.4 7.75-3.24 10.76-9.03 11.93-13.31 1.93-7.09 0.11-14.59-2.68-18.33-2.94-3.94-8.01-6.3-13.54-6.3-2.13 0-4.19 0.36-5.95 1.04-2.64 1.02-4.91 2.77-7.12 4.47-2.09 1.62-4.07 3.14-6.3 4.07-1.71 0.71-3.33 1.06-4.93 1.06-2.62 0-5.24-0.94-8.01-2.87-0.91-0.64-1.35-1.38-1.32-2.27 0.03-1.43 1.18-3.1 2.85-4.15 0.04-0.03 0.08-0.05 0.12-0.08 6.4-4.47 16.8-11.7 18.16-12.57 3.12-1.42 8.11-2.62 10.99-2.62m0-3c-3.61 0-9.1 1.43-12.39 2.98-0.35 0.12-18.48 12.77-18.48 12.77-4.31 2.71-6.14 8.27-1.64 11.41 3.36 2.35 6.57 3.41 9.73 3.41 2.04 0 4.06-0.45 6.08-1.28 5.13-2.13 8.83-6.77 13.34-8.51 1.4-0.54 3.09-0.84 4.87-0.84 3.99 0 8.44 1.48 11.14 5.09 3.9 5.22 5.94 21.24-8.01 27.08-1.95 0.82-3.78 1.17-5.48 1.17-11.24 0-17.16-15.37-17.16-15.37-2.01-3.63-5.67-6.68-9.95-6.68-0.96 0-1.96 0.15-2.98 0.49-5.54 1.83-6.85 6.98-6.09 12.3 0 0 1.43 12.54 6.15 19.12s13.92 13.11 13.92 13.11c0.76 0.73 6.99 4.34 9.79 4.36l19.61-0.03c11.73-0.02 22.33-6.63 26.91-16.81 3.53-7.86 7.11-16.33 7.99-20.17 1.85-8.12-7.08-17.05-7.08-17.05-3.46-5.3-10.91-17.42-16.44-19.26l-21.53-7c-0.6-0.2-1.39-0.29-2.3-0.29z" fill="#4A2F27"/>
  </g>
</svg>
